X: 106101
T: MISS DRUMMOND OF PERTH
Q:"Strathspey."
R: Strathspey.
%R:strathspey
Z: 2017 by John Chambers <jc:trillian.mit.edu>
B: Kerr's Merrie Melodies v.1 p.6 s.1 #1
M: C
L: 1/16
K: Am
|: a2 |\
AA3 ve3ud (Bd3) e4 | vd3vg (Bg3) d3gB3G |\
AA3 ve3ud B3de3g | a3eg3B {B}A4 A2 :|\
ue2 |\
aa3 ea3 (ca3) e4 | gg3 dg3 (Bg3) d4 |
aa3 e3a (ca3) e3ug | a3eg3B {B}A4 A3ug |\
aa3 e3a (ca3) e3^f | gg3 d3g (Bg3) d3g |\
aa3 e3a gb3 e3ug | a3e g3B {B}A4 A2 |]

%%sep 1 1 500
%%sep 1 1 500

